src/com/lilithsthrone/res/statusEffects/combat_witch_charm.svg

<?xml version="1.0" encoding="UTF-8" standalone="no"?>
<!-- Created with Inkscape (http://www.inkscape.org/) -->

<svg
   xmlns:dc="http://purl.org/dc/elements/1.1/"
   xmlns:cc="http://creativecommons.org/ns#"
   xmlns:rdf="http://www.w3.org/1999/02/22-rdf-syntax-ns#"
   xmlns:svg="http://www.w3.org/2000/svg"
   xmlns="http://www.w3.org/2000/svg"
   xmlns:sodipodi="http://sodipodi.sourceforge.net/DTD/sodipodi-0.dtd"
   xmlns:inkscape="http://www.inkscape.org/namespaces/inkscape"
   viewBox="0 0 256 256"
   id="svg2"
   version="1.1"
   inkscape:version="0.91 r13725"
   sodipodi:docname="combat_witch_charm.svg">
  <defs
     id="defs4">
    <inkscape:path-effect
       effect="powerstroke"
       id="path-effect4220"
       is_visible="true"
       offset_points="0.47210599,1.9617818"
       sort_points="true"
       interpolator_type="Linear"
       interpolator_beta="0.2"
       start_linecap_type="zerowidth"
       linejoin_type="round"
       miter_limit="4"
       end_linecap_type="zerowidth"
       cusp_linecap_type="round" />
    <inkscape:path-effect
       cusp_linecap_type="round"
       end_linecap_type="zerowidth"
       miter_limit="4"
       linejoin_type="round"
       start_linecap_type="zerowidth"
       interpolator_beta="0.2"
       interpolator_type="Linear"
       sort_points="true"
       offset_points="0.25601354,8.1684104"
       is_visible="true"
       id="path-effect4152"
       effect="powerstroke" />
    <inkscape:path-effect
       effect="powerstroke"
       id="path-effect4154"
       is_visible="true"
       offset_points="0,0.5"
       sort_points="true"
       interpolator_type="CubicBezierJohan"
       interpolator_beta="0.2"
       start_linecap_type="zerowidth"
       linejoin_type="round"
       miter_limit="4"
       end_linecap_type="zerowidth"
       cusp_linecap_type="round" />
    <inkscape:path-effect
       effect="powerstroke"
       id="path-effect4150"
       is_visible="true"
       offset_points="0,0.5"
       sort_points="true"
       interpolator_type="CubicBezierJohan"
       interpolator_beta="0.2"
       start_linecap_type="zerowidth"
       linejoin_type="round"
       miter_limit="4"
       end_linecap_type="zerowidth"
       cusp_linecap_type="round" />
    <inkscape:path-effect
       effect="powerstroke"
       id="path-effect4146"
       is_visible="true"
       offset_points="0.34598408,6.7401315"
       sort_points="true"
       interpolator_type="Linear"
       interpolator_beta="0.2"
       start_linecap_type="zerowidth"
       linejoin_type="round"
       miter_limit="4"
       end_linecap_type="zerowidth"
       cusp_linecap_type="round" />
    <inkscape:path-effect
       effect="powerstroke"
       id="path-effect4146-2"
       is_visible="true"
       offset_points="0.34598408,6.7401315"
       sort_points="true"
       interpolator_type="Linear"
       interpolator_beta="0.2"
       start_linecap_type="zerowidth"
       linejoin_type="round"
       miter_limit="4"
       end_linecap_type="zerowidth"
       cusp_linecap_type="round" />
    <inkscape:path-effect
       effect="powerstroke"
       id="path-effect4146-2-7"
       is_visible="true"
       offset_points="0.34983355,5.1754019"
       sort_points="true"
       interpolator_type="Linear"
       interpolator_beta="0.2"
       start_linecap_type="zerowidth"
       linejoin_type="round"
       miter_limit="4"
       end_linecap_type="zerowidth"
       cusp_linecap_type="round" />
    <inkscape:path-effect
       effect="powerstroke"
       id="path-effect4146-2-4"
       is_visible="true"
       offset_points="0.34598408,6.7401315"
       sort_points="true"
       interpolator_type="Linear"
       interpolator_beta="0.2"
       start_linecap_type="zerowidth"
       linejoin_type="round"
       miter_limit="4"
       end_linecap_type="zerowidth"
       cusp_linecap_type="round" />
    <inkscape:path-effect
       effect="powerstroke"
       id="path-effect4146-2-4-1"
       is_visible="true"
       offset_points="0.25601354,11.696941"
       sort_points="true"
       interpolator_type="Linear"
       interpolator_beta="0.2"
       start_linecap_type="zerowidth"
       linejoin_type="round"
       miter_limit="4"
       end_linecap_type="zerowidth"
       cusp_linecap_type="round" />
    <inkscape:path-effect
       effect="powerstroke"
       id="path-effect4146-2-4-1-0"
       is_visible="true"
       offset_points="0.25601354,11.696941"
       sort_points="true"
       interpolator_type="Linear"
       interpolator_beta="0.2"
       start_linecap_type="zerowidth"
       linejoin_type="round"
       miter_limit="4"
       end_linecap_type="zerowidth"
       cusp_linecap_type="round" />
    <inkscape:path-effect
       effect="powerstroke"
       id="path-effect4146-2-4-1-1"
       is_visible="true"
       offset_points="0.24778369,14.766099"
       sort_points="true"
       interpolator_type="Linear"
       interpolator_beta="0.2"
       start_linecap_type="zerowidth"
       linejoin_type="round"
       miter_limit="4"
       end_linecap_type="zerowidth"
       cusp_linecap_type="round" />
    <inkscape:path-effect
       effect="powerstroke"
       id="path-effect4146-2-4-1-3"
       is_visible="true"
       offset_points="0.25601354,11.696941"
       sort_points="true"
       interpolator_type="Linear"
       interpolator_beta="0.2"
       start_linecap_type="zerowidth"
       linejoin_type="round"
       miter_limit="4"
       end_linecap_type="zerowidth"
       cusp_linecap_type="round" />
    <inkscape:path-effect
       cusp_linecap_type="round"
       end_linecap_type="zerowidth"
       miter_limit="4"
       linejoin_type="round"
       start_linecap_type="zerowidth"
       interpolator_beta="0.2"
       interpolator_type="Linear"
       sort_points="true"
       offset_points="0.25601354,8.1684104"
       is_visible="true"
       id="path-effect4152-6"
       effect="powerstroke" />
    <inkscape:path-effect
       effect="powerstroke"
       id="path-effect4146-2-4-1-7"
       is_visible="true"
       offset_points="0.25601354,11.696941"
       sort_points="true"
       interpolator_type="Linear"
       interpolator_beta="0.2"
       start_linecap_type="zerowidth"
       linejoin_type="round"
       miter_limit="4"
       end_linecap_type="zerowidth"
       cusp_linecap_type="round" />
    <inkscape:path-effect
       cusp_linecap_type="round"
       end_linecap_type="zerowidth"
       miter_limit="4"
       linejoin_type="round"
       start_linecap_type="zerowidth"
       interpolator_beta="0.2"
       interpolator_type="Linear"
       sort_points="true"
       offset_points="0.25601354,8.1684104"
       is_visible="true"
       id="path-effect4152-9"
       effect="powerstroke" />
    <inkscape:path-effect
       effect="powerstroke"
       id="path-effect4220-3"
       is_visible="true"
       offset_points="0.47210599,1.7855148"
       sort_points="true"
       interpolator_type="Linear"
       interpolator_beta="0.2"
       start_linecap_type="zerowidth"
       linejoin_type="round"
       miter_limit="4"
       end_linecap_type="zerowidth"
       cusp_linecap_type="round" />
  </defs>
  <sodipodi:namedview
     id="base"
     pagecolor="#ffffff"
     bordercolor="#666666"
     borderopacity="1.0"
     inkscape:pageopacity="0.0"
     inkscape:pageshadow="2"
     inkscape:zoom="3.959798"
     inkscape:cx="134.62368"
     inkscape:cy="145.42143"
     inkscape:document-units="px"
     inkscape:current-layer="layer2"
     showgrid="false"
     units="px"
     inkscape:window-width="2560"
     inkscape:window-height="1388"
     inkscape:window-x="-8"
     inkscape:window-y="-8"
     inkscape:window-maximized="1" />
  <metadata
     id="metadata7">
    <rdf:RDF>
      <cc:Work
         rdf:about="">
        <dc:format>image/svg+xml</dc:format>
        <dc:type
           rdf:resource="http://purl.org/dc/dcmitype/StillImage" />
        <dc:title />
      </cc:Work>
    </rdf:RDF>
  </metadata>
  <g
     inkscape:groupmode="layer"
     id="layer2"
     inkscape:label="Layer 2"
     style="display:inline">
    <path
       style="display:inline;fill:#ff0066;fill-opacity:1;fill-rule:evenodd;stroke:#000000;stroke-width:2;stroke-linecap:butt;stroke-linejoin:miter;stroke-miterlimit:4;stroke-dasharray:none;stroke-opacity:1"
       d="M 31.187626,85.127021 C 24.041608,19.811606 119.24761,9.7952749 131.7834,71.345526 146.37056,9.8783604 237.44861,18.126296 226.50146,92.645023 218.93375,144.15973 145.80987,159.66492 131.01599,238.19574 123.89206,156.9928 37.460433,142.46059 31.187626,85.127021 Z"
       id="path4285"
       inkscape:connector-curvature="0"
       sodipodi:nodetypes="scscs" />
    <path
       style="display:inline;fill:#ffffff;fill-opacity:0.78504675;fill-rule:evenodd;stroke:none;stroke-width:1px;stroke-linecap:butt;stroke-linejoin:miter;stroke-opacity:1"
       d="M 209.37667,114.39834 C 223.16284,80.408317 208.5997,36.477867 151.33364,52.384912 203.38783,14.273035 241.4837,72.11627 209.37667,114.39834 Z"
       id="path4287"
       inkscape:connector-curvature="0"
       sodipodi:nodetypes="ccc" />
    <path
       style="display:inline;fill:#ff00cc;fill-opacity:1;fill-rule:evenodd;stroke:#000000;stroke-width:2;stroke-linecap:butt;stroke-linejoin:round;stroke-miterlimit:4;stroke-dasharray:none;stroke-opacity:1"
       d="M 101.9284,172.70384 184.21208,110.86703 79.724224,112.46629 163.99956,172.13515 131.64499,71.656629 Z"
       id="path4300-6"
       inkscape:connector-curvature="0"
       sodipodi:nodetypes="cccccc" />
  </g>
</svg>

<svg xmlns="http://www.w3.org/2000/svg" viewBox="0 0 256 256">
    <g fill-rule="evenodd">
        <path fill="#f06" stroke="#000" stroke-width="2" d="M31.188 85.127c-7.146-65.315 88.06-75.332 100.595-13.781 14.588-61.468 105.666-53.22 94.718 21.299-7.567 51.515-80.691 67.02-95.485 145.55-7.124-81.202-93.556-95.734-99.828-153.068z"/>
        <path fill="#fff" fill-opacity=".785" d="M209.377 114.398c13.786-33.99-.777-77.92-58.043-62.013 52.054-38.112 90.15 19.731 58.043 62.013z"/>
        <path fill="#f0c" stroke="#000" stroke-linejoin="round" stroke-width="2" d="M101.928 172.704l82.284-61.837-104.488 1.6L164 172.134 131.645 71.657z"/>
    </g>
</svg>
